X: 420
T: Yueliao meizi yue kexi
L: 1/8
M: 2/4
K: F
c> df2 [I:setbarnb 1]| 
g f d c | 
A2c d | 
c4 | 
c> df2 | 
g f d c | 
A2c G | 
F4 |]

@@@ Tune index: 9294
